public/assets/images/logos/aquent.svg

<svg enable-background="new 0 0 332.3 46" viewBox="0 0 332.3 46" xmlns="http://www.w3.org/2000/svg"><g fill="#ff5f14"><path d="m22.8 32.8-7.4.9-.9-7.4 7.4-.9z"/><path d="m30.2 40.3h7l-15.9-39.7h-5.3l-16 39.7h7l11.6-29.5zm183.1-39.6v6.2h-16.8v9.6h15.8v6.2h-15.8v11.6h17.7v6.2h-24.3v-39.7zm-135.9 40.3c-11.7-.3-19.8-8.5-19.8-20 0-12.2 8.5-21 20.2-21 11.4 0 19.7 8.4 19.7 20 .1 4.2-1 8.2-3.1 11.8-1.3 2.1-3 3.9-5 5.3l9 2.4-1.7 6.4m-.2.1-19.1-5m-13.1-20c0 8 5.6 14 13.1 14 8 0 13.4-6 13.4-14.8 0-7.1-4.4-14.2-13-14.2-9.4 0-13.5 7.5-13.5 15zm86.9-20.3v22.5c0 5.3-1.6 11.6-9.4 11.6-7.2 0-8.8-6.3-8.8-11.6v-22.5h-6.5v22.6c0 15.9 10.6 17.7 15.2 17.7 10.1 0 16-6.7 16-18v-22.3zm99.5 12 20.1 27.6h5.4v-39.6h-6.6l.1 27.4-20-27.4h-5.4v39.6h6.6zm48.4-12v6.2h13.3v33.5h6.6v-33.5h13.3v-6.2z"/></g></svg>

<svg version="1.1" id="Layer_1" xmlns="http://www.w3.org/2000/svg" xmlns:xlink="http://www.w3.org/1999/xlink" x="0px" y="0px" viewBox="0 0 332.3 46" style="enable-background:new 0 0 332.3 46;" xml:space="preserve">
 <style type="text/css">
  .st0{fill:#FF5F14;}
 </style>
 <g>
  <path class="st0" d="M22.8,32.8l-7.4,0.9l-0.9-7.4l7.4-0.9L22.8,32.8z">
  </path>
  <path class="st0" d="M30.2,40.3h7L21.3,0.6H16L0,40.3h7l11.6-29.5L30.2,40.3z M213.3,0.7v6.2h-16.8v9.6h15.8v6.2h-15.8v11.6h17.7
		v6.2h-24.3V0.8L213.3,0.7L213.3,0.7z M77.4,41c-11.7-0.3-19.8-8.5-19.8-20c0-12.2,8.5-21,20.2-21c11.4,0,19.7,8.4,19.7,20
		c0.1,4.2-1,8.2-3.1,11.8c-1.3,2.1-3,3.9-5,5.3l9,2.4l-1.7,6.4 M96.5,46l-19.1-5 M64.3,21c0,8,5.6,14,13.1,14c8,0,13.4-6,13.4-14.8
		c0-7.1-4.4-14.2-13-14.2C68.4,6,64.3,13.5,64.3,21z M151.2,0.7v22.5c0,5.3-1.6,11.6-9.4,11.6c-7.2,0-8.8-6.3-8.8-11.6V0.7h-6.5
		v22.6c0,15.9,10.6,17.7,15.2,17.7c10.1,0,16-6.7,16-18V0.7C157.8,0.7,151.2,0.7,151.2,0.7z M250.7,12.7l20.1,27.6h5.4V0.7h-6.6
		l0.1,27.4l-20-27.4h-5.4v39.6h6.6L250.7,12.7L250.7,12.7z M299.1,0.7v6.2h13.3v33.5h6.6V6.9h13.3V0.7H299.1L299.1,0.7z">
  </path>
 </g>
</svg>
